X:1
T: Flaming O'Flanigan's Jig
C:
R:Jig
Q:180
K:C
M:6/8
L:1/16
cd|e2f2e2 d2e2d2|c2d2c2 c2e2g2|a2b2c'2 g2f2e2|e2d2d2 d2g2f2|e6 d2c2d2|c2d2c2 c2e2g2|a2b2c'2 g2f2e2|f2d2B2 c4cd|
e2f2e2 d2e2d2|c2d2c2 c2e2g2|a2b2c'2 g2f2e2|e2d2d2 d2g2f2|e6 d2c2d2|c2d2c2 c2e2g2|a2b2c'2 g2f2e2|f2d2B2 c4gf|
e2f2g2 g4g2|g2a2g2 a2b2c'2|g2f2e2 e2d2c2|B2c2d2 d4g2|e2f2g2 g4g2|g2a2g2 a2b2c'2|g2f2e2 e2d2c2|B2c2d2 d2g2f2|
e2f2e2 d2e2d2|c2d2c2 c2e2g2|a2b2c'2 g2f2e2|e2d2d2 d2g2f2|e6 d2c2d2|c2d2c2 c2e2g2|a2b2c'2 g2f2e2|f2d2B2 c4||
